X: 1315
T: Kırdı Geçirdi Beni
C: Medenî Aziz Efendi
O: Turkey
F: http://compmusic.upf.edu/node/140
N: nisaburek--sarki--sofyan--kirdi_gecirdi--medeni_aziz_efendi
N: makam= nisaburek
N: form= sarki
N: usul= sofyan = 4/4
M: 4/4
L: 1/16
K: C ^9/8f ^3/4c ^3/4g 
Q: 1/4=84
%%MIDI tuningsystem comma53
A3f efed c3e dedc  | B3d cdcB ABcd e^3/4de2  | 
w:  ARANAĞME  |   | 
d3f efed c3e dedc  | B3d cBAG A2E2 A2z2  | 
w:   |   | 
A3f efed c3e dedc  | B3d cdcB ABcd e^3/4de2  | 
w:  ARANAĞME  |   | 
d3f efed c3e dedc  | B3d cBAG A2E2 A2z2  | 
w:   |   | 
z4 c2d2 e4 e4  | f3e d2f2 e2{f}ed c4  | \
w:  Kır dı  ge çir  |  di  *  be *  ni    | 
f3e e3d c3B A2B2  | 
w:  Sad *  me  *  i  *  dehr_  | 
c3B B2{c}BA A8  | z4 c2d2 e4 e4  | f3e d2f2 e2{f}ed c4  | \
w:  i  *  de *  *  *  ni    |  Kır dı  ge çir  |  di  *  be *  ni    | 
f3e e3d c3B A2B2  | 
w:  Sad *  me  *  i  *  dehr_  | 
c3B B2{c}BA A8  | z4 g2a2 g3f e4  | f4 g2b2 a2=g2 f2e2  | \
w:  i  *  de *  *  *  ni    |  Yak tı  kül  *  et  |  ti  be *  ni    | 
c3B A2B2 c3e d2c2  | 
w:  Sad *  me  *  i  *  dehr_  | 
B3d d2{e}cB A4 z4  | z4 g2a2 g3f e4  | \
w:  i  *  de *  *  *  ni    |  Yak tı  kül  *  et  | 
f4 g2b2 a2=g2 f2e2  | c3B A2B2 c3e d2c2  | 
w:  ti  be *  ni    |  Sad *  me  *  i  *  dehr_  | 
B3d d2{e}cB A4 z4  | A3f efed c3e dedc  | \
w:  i  *  de *  *  *  ni    |  ARANAĞME  | 
B3d cdcB ABcd e^3/4de2  | 
w:   | 
d3f efed c3e dedc  | B3d cBAG A2E2 A2z2  | 
w:   |   | 
A3f efed c3e dedc  | B3d cdcB ABcd e^3/4de2  | 
w:  ARANAĞME  |   | 
d3f efed c3e dedc  | B3d cBAG A2E2 A2z2  | 
w:   |   | 
z4 c2d2 e4 e4  | f3e d2f2 e2{f}ed c4  | \
w:  Kır dı  ge çir  |  di  *  be *  ni    | 
f3e e3d c3B A2B2  | 
w:  Sad *  me  *  i  *  dehr_  | 
c3B B2{c}BA A8  | z4 c2d2 e4 e4  | f3e d2f2 e2{f}ed c4  | \
w:  i  *  de *  *  *  ni    |  Kır dı  ge çir  |  di  *  be *  ni    | 
f3e e3d c3B A2B2  | 
w:  Sad *  me  *  i  *  dehr_  | 
c3B B2{c}BA A8  | z4 g2a2 g3f e4  | f4 g2b2 a2=g2 f2e2  | \
w:  i  *  de *  *  *  ni    |  Yak tı  kül  *  et  |  ti  be *  ni    | 
c3B A2B2 c3e d2c2  | 
w:  Sad *  me  *  i  *  dehr_  | 
B3d d2{e}cB A4 z4  | z4 g2a2 g3f e4  | \
w:  i  *  de *  *  *  ni    |  Yak tı  kül  *  et  | 
f4 g2b2 a2=g2 f2e2  | c3B A2B2 c3e d2c2  | 
w:  ti  be *  ni    |  Sad *  me  *  i  *  dehr_  | 
B3d d2{e}cB A4 z4  | |


